X:4732
L:1/8
M:6/8
K:G
 d | def g2 e | d2 B G3 | g3 def | g3- g2 D | G2 G B2 A | G2 E G2 G | G2 e dBG | ABA G2 |]

